X:044 
T:Dowser's Favorite (reel), The 
S:J.Wade < Pat Ward
F:file ID: cre.4/044dows_f
B:CRE4.207 (Rogha an Chollura)
L:1/8
Q:180
M:4/4
R:reel
K:G
Bc|dgeB dBAB|GABG EDB,D|D2GB cBAG|FGAB cAFD|
dgeB dBAB|G2BG EDB,D|GDB,D GBdB|(3cBA FA G2:|
|:Bc|dB~B2 gdBd|dB~B2 gdBd|D2GB cBAG|FGAB cedc|
dB~B2 gdBd|dB~B2 gdBd|GDB,D GBdB|1 (3cBA FA G2:|
[2 (3cBA FA G4- |G8|]

%%%

